X:70
T:Devil the Care
T:Brannigan's
T:Johnny O'Leary's
R:slide
S:Seamus Begley
F:http://www.youtube.com/watch?v=KiVSvvYfMU8
Z:id:hn-slide-70
M:6/8
L:1/8
K:A
cAA eAA | aga e2d | cAA eAA | Bcd Bed | cAA eAA | aga e2d | cBc BAB | cAA A2B :|
|: c3 cBA | dcd a2d | c3 ecA | Bcd BAB | c3 cBA | dcd a2d | c3 BAB | cAA A2B :|

